!!!!SEGMENT: pl-kc--40102-iii-1-saf--001-047_zielenski-mikolaj--offertoria-totius-anni-motteto-de-s-spirito-spiritus-sancti-gratia.krn
!!!cenid: 16xx:1526
!!!COM: Zieleński, Mikołaj
!!!COM-rismid: pe30013481
!!!CDT: <1611->1611
!!!CNT: Polish
!!!GTL: Offertoria totius anni
!!!OTL: Motteto de S. Spirito/Spiritus sancti gratia
!!!OMV: 047
!!!PDT: 1611
!!!AGN:
!!!SMS-siglum: PL-Kc
!!!SMS-shelfmark: 40102 III/1 Saf.
!!!SMS-shelfwork: 001-047 G
!!!SMS-variant:
!!!SMS-altvar:
!!!NIFC-rismid: 990069886
!!!URL-scan: https://cyfrowe.mnk.pl/dlibra/publication/24235/edition/23926/content?ref=desc
!!!ONB-nifc: UWAGA: str. 40-41. Uwaga: W xml metrum 2/1 do źródłowego C| i odpowiednio 3/1 do 3/2
!!!AIN: 4 organ
!!!key: F:lyd
**kern	**kern	**kern	**kern
*group1	*group1	*group1	*group1
*part4	*part3	*part2	*part1
*staff4	*staff3	*staff2	*staff1
*I""Organo	*	*	*
*Iorgan	*Iorgan	*Iorgan	*Iorgan
*ICklav	*ICklav	*ICklav	*ICklav
*clefF4	*clefC3	*clefC3	*clefG2
*k[b-]	*k[b-]	*k[b-]	*k[b-]
*F:lyd	*F:lyd	*F:lyd	*F:lyd
*M2/1	*M2/1	*M2/1	*M2/1
*met(C|)	*met(C|)	*met(C|)	*met(C|)
=1	=1	=1	=1
!	!	!LO:TX:a:t=Spiritus ſancti gratia.	!LO:TX:a:t=Motteto de S.Spirito A 7. Replicar due volte.
!LO:TX:t=P:problem=all/middle&colon; global	!LO:TX:t=P:problem=all/middle&colon; global	!LO:TX:t=P:problem=all/middle&colon; global	!LO:TX:t=P:problem=all/middle&colon; global
!LO:TX:t=P:problem=all\middle&colon; global	!LO:TX:t=P:problem=all\middle&colon; global	!LO:TX:t=P:problem=all\middle&colon; global	!LO:TX:t=P:problem=all\middle&colon; global
00r	00r	2.f\	2.cc\
.	.	4f\	4cc\
.	.	2e\	2cc\
.	.	1f\	1a/
=2-	=2-	=2-	=2-
.	.	.	.
.	.	2c/	2cc\
.	.	2d\	2b-/
.	.	2e\	2b-/
=3	=3	=3	=3
2r	2r	1f	1a
2.F\	2.a\	.	.
.	.	1r	1r
4F\	4a\	.	.
2E\	2g\	.	.
=4-	=4-	=4-	=4-
2F\	2a\	0r	0r
2C/	2e\	.	.
2D/	2f\	.	.
2E\	2g\	.	.
*custos:F	*custos:c	*custos:a	*custos:ff
!LO:PB:g=original	!LO:PB:g=original	!LO:PB:g=original	!LO:PB:g=original
=5	=5	=5	=5
1.F	1.c	2r	2r
.	.	2.a\	2.ff\
.	.	4a\	4ff\
2.FF/	2.c/	2a\	1ff\
=6-	=6-	=6-	=6-
.	.	1.f	.
4FF/	4c/	.	.
2FF/	2c/	.	4cc\
.	.	.	2dd\
[y1BB-	4B-/	.	.
.	4c/	.	4b-/
.	4d\	2f\	4cc\
.	4e\	.	4ryy
=7	=7	=7	=7
!LO:N:vis=4:xstem:cue	!	!	!
2BB-]	1f	1F	4dd\
.	.	.	4ee\
2FF/	.	.	4ff\
.	.	.	4dd\
1.C	2e\	2G/	2ee\
.	2a\	2F/	2.ff\
=8-	=8-	=8-	=8-
.	2.g\	2G/	.
.	.	.	8ee\
.	.	.	8dd\
2C/	.	2c/	2ee\
.	4g\	.	.
1FF	1a	2.A/	2ff\
.	.	.	2cc\
.	.	4f\	.
=9	=9	=9	=9
00r	00r	4d\	2.dd\
.	.	4B-/	.
.	.	2.f\	.
.	.	.	4cc\
.	.	.	4dd\
.	.	4e\	4ee\
.	.	4.d\	4.ff\
.	.	8d\	8ff\
=10-	=10-	=10-	=10-
.	.	4c/	2ee\
.	.	4A/	.
.	.	2d\	4r
.	.	.	4a/
.	.	2B-/	2dd\
.	.	4r	2cc\
.	.	4F/	.
=11	=11	=11	=11
0r	0r	4.f\	4r
.	.	.	4cc\
.	.	8e\	.
.	.	2d\	2ff\
.	.	4A/	4ee\
.	.	2B-/	2dd\
.	.	4G/	4ee\
=12-	=12-	=12-	=12-
1r	2r	2.A/	4cc#X\
.	.	.	4.dd\
.	2a\	.	.
.	.	.	16cc#X\
!	!	!	!LO:SIC:v:s:t=16bn\
.	.	.	16b-\
.	.	4A/	4cc#\
2r	1b-	1D	1dd
2D/	.	.	.
=13	=13	=13	=13
4BB-/	4d\	00r	00r
4GG/	4d\	.	.
2.E-X\	2.g\	.	.
4D/	4f\	.	.
4.C/	4.e-X\	.	.
8C/	8e-\	.	.
=14-	=14-	=14-	=14-
4BB-/	2d\	.	.
4GG/	.	.	.
2C/	4r	.	.
.	4eny\	.	.
2FF/	2a\	.	.
4r	2f\	.	.
4BB-/	.	.	.
=15	=15	=15	=15
2.F\	4r	0r	0r
.	4f\	.	.
.	4a\	.	.
4C/	4g\	.	.
4D/	4f\	.	.
4AA/	4e\	.	.
4.D/	4f\	.	.
.	4f\	.	.
8D/	.	.	.
=16-	=16-	=16-	=16-
1C	1e	2r	2r
!	!	!LO:N:cue:xstem	!
.	.	4d\	2g/
.	.	4c/	.
1r	1r	4.A/	4.cc\
.	.	8B-/	16b-/
.	.	.	16a/
.	.	4c/	4g/
.	.	4G/	4b-/
=17	=17	=17	=17
0r	0r	2d\	2a/
.	.	2A/	4cc\
.	.	.	2cc\
.	.	2.d\	.
!	!	!	!LO:N:acc=#
.	.	.	8bn/
.	.	.	8a/
.	.	.	2b/
.	.	4d\	.
=18-	=18-	=18-	=18-
2r	2r	1c	1cc
2C/	4r	.	.
.	4g\	.	.
2F\	2a\	1r	1r
4D/	4f\	.	.
[>4G\	[>4d\	.	.
=19	=19	=19	=19
4G\]	4d\]	1r	1r
4F\	4d\	.	.
4E\	4g\	.	.
4E\	4g\	.	.
2.D/	2.f#X\	2r	2r
.	.	4r	4r
4D/	4a\	4d\	4ff\
=20-	=20-	=20-	=20-
2AA/	2a\	2e\	2ee\
2.D/	2.f#X\	2.a\	2dd\
.	.	.	4r
2BB-/	2fn\	2d\	2dd\
4FF/	4f\	4f\	4cc\
=21	=21	=21	=21
2.C/	2c/	4e\	2.cc\
.	.	2f\	.
.	2c/	.	.
4C/	.	4e\	4cc\
1FF	1c	2.f\	2cc\
.	.	.	2cc\
.	.	4f\	.
=22-	=22-	=22-	=22-
2r	2r	4c/	4ee\
.	.	4F/	4ff\
4r	4r	4c/	4ee\
4F\	4a\	4F/	4ff\
4C/	4g\	2r	2r
4FF/	4f\	.	.
4C/	4e\	4r	4r
4FF/	4f\	4f\	4cc\
=23	=23	=23	=23
2r	2r	4c/	4ee\
!	!	!	!LO:SIC:v:s:t=4ff\
.	.	4F/	4ff#X\
4r	4r	4c/	4ee\
4F\	4a\	4F/	4ffny\
4C/	4g\	2r	2r
4FF/	4f\	.	.
4C/	4e\	4r	4r
4FF/	4f\	4f\	4cc\
=24-	=24-	=24-	=24-
2r	2r	4c/	4ee\
.	.	4F/	4ffny\
4r	4r	4c/	4ee\
4G\	2g\	4G/	4dd\
2E-X\	.	4r	4r
.	4g\	4g\	4.gg\
2C/	4.e-X\	[<2g\	.
.	.	.	8ff\
.	.	.	4ee-X\
.	16d\	.	.
.	16c\	.	.
*custos:G	*custos:d	*custos:g	*custos:dd
!LO:LB:g=original	!LO:LB:g=original	!LO:LB:g=original	!LO:LB:g=original
=25	=25	=25	=25
2G\	2d\	2g\]	2dd\
4C/	4e-X\	2g\	4cc\
4C/	4e-\	.	2cc\
2G\	1d	2.g\	.
!	!	!	!LO:N:acc=#
.	.	.	8bn/
.	.	.	8a/
2GG/	.	.	2b/
.	.	4f\	.
=26-	=26-	=26-	=26-
1C	1eny	1e	1cc
1r	1r	1r	1r
=27	=27	=27	=27
1FF	1c	1f	1cc
2BB-/	2B-/	2f\	2dd\
2GG/	2d\	2g\	2dd\
=28-	=28-	=28-	=28-
2.C/	2c/	1g	2ee\
.	2c/	.	2.gg\
4BB-/	.	.	.
2AA/	1.c	1a	.
.	.	.	4ff\
2FF/	.	.	2.ff\
=29-	=29-	=29-	=29-
2.C/	.	2.g\	.
.	.	.	8ee\
.	.	.	8dd\
.	2c/	.	2ee\
4C/	.	4g\	.
0.FFl	0.cl	0.al	0.ffl
==	==	==	==
*-	*-	*-	*-
!!!system-decoration: g1
!!!RDF**kern: > = above
!!!RDF**kern: < = below
!!!RDF**kern: l = terminal long
!!!ENC: Andrzej Gręziak
!!!END: 2021-12-15
!!!EED: Jędrzej Mróz
!!!EEV: 2021-12-22
